X:75
%%scale 0.6
M:6/8
K:Dmaj
|:Add dcd|efg a2g|fed cAG|ABc d3:|fga fed|fga ecA|fga fed|gfe dcA|
fga fed|fga ecA|fga efg|fed cAG|ABc d3|efg a2g|fed cAG|ABc d3:| 
